X: 100440
T: SCOTIA'S REEL
C: Composed by W.B. Laybourn
R: reel
B: K\"ohler's Violin Repository, v.3, 1885 p.277 #3
F: http://www.archive.org/details/klersviolinrepos03rugg
Z: 2012 John Chambers <jc:trillian.mit.edu>
M: C|
L: 1/8
K: Am
uE |\
A2ce acA2 | BGGA B^GGB | A2ce acA2 | BEBd cAA :|
ue |\
aecA EAce | fdAF DFAd | ecGE CEGc | dBGD B,DGB |
AEAc BFBd | cGce dAdf | ecdB cAB^G | A2c2 A2 "^D.C."|]

%%sep 2 1 500

